X:104
T:Sand's Hornpipe
N:Allan's  #104   pp26
N:Trad/Anon
N:CONVERTED FROM NOTEWORTHY COMPOSER  (WWW.NOTEWORTHYSOFTWARE.COM) BY
N:ABC2NWC (HTTP://MEMBERS.AOL.COM/ABACUSMUSIC/), WITH
Z: (INTO NWC) VINCE BRENNAN 2002   (WWW.SOSYOURMOM.COM)
I:abc2nwc
M:4/4
L:1/8
K:G
((3def)|g3/2g/2d3/2B/2 G3/2c/2e3/2d/2|c3/2B/2A3/2G/2F3/2A/2D3/2F/2|G3/2A/2B3/2c/2 d3/2^c/2d3/2B/2|A3/2d/2^c3/2e/2 d3/2d/2e3/2f/2|
g3/2g/2d3/2B/2 G3/2B/2e3/2d/2|c3/2B/2A3/2G/2 F3/2A/2D3/2F/2|G3/2B/2d3/2g/2 e3/2c/2A3/2F/2|G3/2A/2G3/2F/2 G2:|
|:(c3/2B/2)|A3/2B/2A3/2G/2 F3/2D/2E3/2F/2|G3/2A/2B3/2c/2 d3/2^c/2d3/2B/2|A3/2B/2^c3/2d/2 e3/2d/2c3/2B/2|A3/2d/2^c3/2e/2 d2(e3/2f/2)|
 ((3gag) d3/2B/2  ((3efe) c3/2e/2| ((3ded) B3/2d/2 c3/2A/2F3/2A/2|G3/2B/2d3/2g/2 e3/2c/2A3/2G/2|G3/2A/2G3/2F/2 G2:|
